X:1
T:T
T:Duetto di Pleyel
T:HS.81.Vanpelt.275
T:Een speelmansboek uit Maastricht/Tongeren (1786-1824) 
T:BRON: Lusthof-der-muziek.blogspot.com: Handschrift van VanPelt (1786-1824)  / Transcriptie door Ad Kwakernaat (2015) 
T:Naar een origineel van Pleyel Ignaz (1757-1831) 
T:Genoteerd door Van der Elst Johan
T:Genoteerd door Van der Elst Johan
T:Genoteerd door Van der Elst Johan
T:Genoteerd door Van der Elst Johan
T:Genoteerd door Van der Elst Johan
T:Genoteerd door Van der Elst Johan
T:Genoteerd door Van der Elst Johan
Z:Een speelmansboek uit Maastricht/Tongeren (1786-1824)
Z:Genoteerd door Van der Elst Johan
%%score { ( 1 2 ) 3 }
L:1/8
Q:1/4=144
M:4/4
K:Bb
V:1 treble nm="Viool"
V:2 treble 
V:3 treble nm="Viool"
V:1
"^Allegro" B>d |:!p! (f2 d2) !wedge!B2 !wedge!c>!wedge!e | (decd) !wedge!B2 !wedge!c>!wedge!e | %3
 (dfeg) (fbge) | (d4 c2) !wedge!B>!wedge!d | (f2 d2) !wedge!B2 c>e | (decd) B2 c>e | %7
 db gf/e/ d2 c2 | B2 F2 B,2 z2 |!f!{d} .d'.c'/.b/ .a/.g/.f/.e/ d2 z2 | c'b/a/ g/f/=e/d/ c2 z2 | %11
!p! (c'b)!wedge!b!wedge!b g3 a/b/ | =bc'c'c' a2 z2 | %13
 (c'/b/)!wedge!b/!wedge!b/ .b/.b/.b/.b/ g3 a/b/ |{d'} c'c'/c'/ c'/c'/c'/c'/ a3 c' | %15
 (3d'dd' c' z/ a/ (3bBb a z/ f/ | a>g (g2{a)gf} g>a b>c' | d'3 c' (ba)(gf) | %18
!f! =e2 [Gec']2 [Gec']2 c>c | (f3 a) g=efa | d'>c' c'4 bg | f z (f2 d2) !wedge!b2 | a4 g2 c>c | %23
 (f3 a) (g=efa) | d'>c' c'4 bg | afdg f2 P=e2 |!p! f z [FA][FA] [GB]2 [CG][CG] | %27
 [FA]2 [FA][FA] [GB]2 [CG][CG] | FCFC FCFC | f=edc BAGF | [B,D][B,D][B,D][B,D] [B,D]2 z =B, | %31
 C2 z2 [CF]2 z2 | [CF]2 z2 [CF]2 z2 | [CF][CF][CF][CF] [C=E][CE][CE][CE] | %34
 F/A/c/f/ a/f/a/f/ =e/c/e/g/ b/g/b/g/ | F/A/c/f/ a/f/a/f/ =e/c/e/g/ b/g/b/g/ | %36
!<(! g/b/g/=e/ g/b/g/e/ g/b/g/e/ g/b/g/e/!<)! |!f! a/b/g/a/ f/g/=e/f/ d/e/c/d/ B/c/A/B/ | %38
 G/D/=E/F/ G/A/B/c/ d/c/B/A/ G/F/E/D/ | C/F/G/A/ B/c/d/=e/ f/A/B/c/ d/e/f/g/ | %40
 a/c/d/=e/ f/g/a/b/ c'd'=e'f' | C4 g4 | f z f=e dcBA | B z dc BAGB | %44
 A z b/a/a/g/ g/f/f/=e/ e/d/d/^c/ | d z c'/b/b/a/ a/g/g/f/ f/=e/e/g/ | f3 a c'3 b/g/ | %47
 fffa c'3 b/g/ | f/A/B/c/ d/=e/f/g/ afcA |1 F2 [FAf]2 [FAf]2 B>d :|2 F2 [FAf]2 [FAf]2 F>A || %51
 (c2 A2 F2) .A>.c | e2 c2 A2 c>e | g3 f e2 d2 | g3 f e2 d2 | c2 a4 c2 | c2 b4 ag | fg^ga a3 c | %58
 Bdgb b2 ag | g4 fed^c | d2 d2 d2 D>^F | A2 ^F2 D2 F>A | c2 A2 ^F2 A>c | e2 c>f a2 ^f>a | %64
 (c'6 b2) | (b4 a2) g2 | (^f2 e2 d2 c2) | B z [DB][DB] [Dc] z ^FF | G z [DB][DB] [Dc] z ^FF | %69
 G^FGE GEGE | GGGG B,B,B,B, | GGGG [CG]2 z2 | [DG]2 z2 z4 | [DB][DB][DB][DB] [Dc][Dc][Dc][Dc] | %74
 G/B/d/g/ b/g/b/g/ ^f/a/f/a/ A/c/A/c/ | G/B/d/g/ b/g/b/g/ ^f/a/f/a/ A/c/A/c/ | %76
 .B/.d/.c/.A/ .B/.d/.c/.A/ .B/.d/.c/.A/ .B/.d/.c/.A/ | B/d/=e/^f/ g/a/b/c'/ d'/c'/b/a/ g/=f/_e/d/ | %78
 d>e e3 ee'a | ga c'3 afe | db b3 gfe | g7/2 =e/ f2 F>A | c2 A2 F2 A>c | e2 c2 A2 c>e | (g6 f2) | %85
 (=e6 _e2) |{def} e8 | !fermata!e2 z2 z2 B>d | f2 d2 B2 c>e | decd B2 c>e | (dfeg) (fbge) | %91
 (d4 c2) z2 | z4 z2 F2 | B2 F2 D2 F2 | B2 E2 F2 F2 | [B,D]2 [B,D]2 [B,D]2 z2 | %96
 ba/g/ f/e/d/c/ B2 z2 | c'/d'/c'/b/ a/b/a/g/ f2 z2 | ba/g/ f/e/d/c/ B2 z2 | %99
 c'/d'/c'/b/ a/b/a/g/ f2 z2 | b4 bc'b_a | ^fg z (e .=f.g._a.b) | ^fg z (e .=f.g._a.b) | %103
 gg f z/ d/ ee d z/ B/ | c/=B/c/d/ e/d/e/f/ g(f/e/) d(c/_B/) | A2 [FAf]2 [FAf]2 z2 | z8 | %107
 z2 A,C B,DCE | DFDB, EFEC | F=EFE F z FF | B3 d cABd | g>f f4 ec | db gf/e/ d2 Tc2 | %113
 B z [B,D][B,D] [CE] z [A,F][A,F] | [B,F] z [B,D][B,D] [CE] z [A,F][A,F] | [B,F]FBF BFBF | %116
 BAGF EDCB, | EEEE EE=EE | F z FG A z AB | cBAB cBAB | c=BcB c_BAG | %121
 [A,F][A,F][A,F][A,F] [A,F][A,F][A,F][A,F] | [B,F] z z2 z4 | [FB][FB][FB][FB] [FA][FA][FA][FA] | %124
 B,/D/F/B/ d/B/d/B/ A/F/A/c/ e/c/e/c/ | B,/D/F/B/ d/B/d/B/ A/F/A/c/ e/c/e/c/ | %126
 d/e/c/A/ d/e/c/B/ d/e/c/A/ d/e/c/A/ | d/e/c/d/ B/c/A/B/ G/A/F/G/ E/F/D/E/ | C2 g2 gf/e/ dc/B/ | %129
 A/f/=e/f/ A/f/B/f/ c/f/e/f/ c/f/d/f/ | e/f/d/f/ c/f/d/f/ e/f/d/f/ c/f/d/f/ | %131
 e/f/d/f/ e/f/d/f/ e/f/d/f/ c/f/B/f/ | A/c/d/=e/ f/g/a/b/ c'/b/a/b/ a/g/f/_e/ | (d f2 b2 d'2 f') | %134
 F4 Pc4 | B z (ba) (gfed) | e z (GF) (EDCE) | D z d/d'/(d'/c'/) (c'/b/)(b/a/) a/g/g/^f/ | %138
 g z E/e/e/d/ d/c/c/B/ B/A/A/c/ | B3 d f3 (e/c/) | BBBd f3 (e/c/) | B/d/e/f/ g/a/b/c'/ d'bfd | %142
 B2 [DBb]2 [DBb]2 z2 |] %143
V:2
 x2 |: x8 | x8 | x8 | x8 | x8 | x8 | x8 | x8 | x8 | x8 | x8 | x8 | x8 | x8 | x8 | x8 | x8 | x8 | %19
 x8 | x8 | x8 | x8 | x8 | x8 | x8 | x8 | x8 | x8 | x8 | x8 | x8 | x8 | x8 | x8 | x8 | x8 | x8 | %38
 x8 | x8 | x8 | x8 | x8 | x8 | x8 | x8 | x8 | x8 | x8 |1 x8 :|2 x8 || x8 | x8 | x8 | x8 | x8 | x8 | %57
 x8 | x8 | x8 | x8 | x8 | x8 | x8 | x8 | x8 | x8 | x8 | x8 | x8 | x8 | x8 | x8 | x8 | x8 | x8 | %76
 F2 F2 F2 F2 | x8 | x8 | x8 | x8 | x8 | x8 | x8 | x8 | x8 | x8 | x8 | x8 | x8 | x8 | x8 | x8 | x8 | %94
 x8 | x8 | x8 | x8 | x8 | x8 | x8 | x8 | x8 | x8 | x8 | x8 | x8 | x8 | x8 | x8 | x8 | x8 | x8 | %113
 x8 | x8 | x8 | x8 | x8 | x8 | x8 | x8 | x8 | x8 | x8 | x8 | x8 | x8 | x8 | x8 | x8 | x8 | x8 | %132
 x8 | x8 | x8 | x8 | x8 | x8 | x8 | x8 | x8 | x8 | x8 |] %143
V:3
 z2 |: z4 z2!p! F2 | B2 F2 D2 F2 | (Bdce) d2 (ec) | [FB]4 [FA]2 z2 | z4 z2 F2 | B2 F2 D2 F2 | %7
 B2 E2 F2 F2 | [B,D]2 [B,D]2 [B,D]2 z2 | [B,F]2 z2 .B,/.C/.D/.E/ .F/.G/.A/.B/ | %10
 A2 z2 A,/B,/C/D/ =E/F/G/A/ | (GcGc)!f! =EcEc | GcAc FcFc | GcGc =Ec_Ec | AcAc FcFA | B2 A2 G2 F2 | %16
 z [B,D][B,D][B,D] [B,D][B,D][B,D][B,D] | z [B,D][B,D][B,D] [B,D][B,D][B,D][B,D] | %18
 C2 [G,=Ec]2 [G,Ec]2 z2 | z8 | z2 =EG FAGB | AcAF BdBG | z c=Bc C2 z2 | z8 | z2 =EG FAGB | %25
 F2 B2 c2 C2 | F/A/c/f/ a/f/a/f/ =e/c/e/g/ b/g/b/g/ | F/A/c/f/ a/f/a/f/ =e/c/e/g/ b/g/b/g/ | %28
 a/b/g/=e/ a/b/g/e/ a/b/g/e/ a/b/g/e/ | a/b/g/a/ f/g/=e/f/ d/e/c/d/ B/c/A/B/ | %30
 G/D/=E/^F/ G/A/B/^c/ d/=c/B/A/ G/=F/_E/D/ | C/F/G/A/ B/c/d/=e/ f/A/B/c/ d/e/f/g/ | %32
 a/c/d/=e/ f/g/a/b/ c'd'=e'f' | C4 g4 | f z [FA][FA] [GB]2 [CG][CG] | %35
 [FA]2 [FA][FA] [GB]2 [CG][CG] | FCFC FCFC | f=edc BAGF | [B,D][B,D][B,D][B,D] [B,D]2 z [=B,E] | %39
 [CF]2 z2 [CF]2 z2 | [CF]2 z2 z4 | [CF][CF][CF][CF] [C=E][CE][CE][CE] | [A,F] z ag fed^c | %43
 d z ba gf=eg | f z f=e dcBA | B z dc BAGB | A/c/A/F/ A/c/A/F/ =E/G/E/C/ E/G/E/C/ | %47
 A/c/A/F/ A/c/A/F/ =E/G/E/C/ E/G/E/C/ | F/F/G/A/ B/c/d/=e/ fcAF |1 [A,F]2 [A,F]2 [A,F]2 z2 :|2 %50
 [A,F]2 [A,F]2 [A,F]2 z2 || z4 z2 F>A | c2 A2 F2 A>c | eFdF cFBF | eFdF cFBF | AD^FD FDAD | %56
 GDGD GDBD | AD^FD FDAD | GDGD GDBD | EGBG EGBG | ^F2 [DF]2 [DF]2 z2 | z4 z2 D>^F | A2 ^F2 D2 F>A | %63
 c2 A>c ^f2 c>f | (a6 g2) | (g4 ^f2) e2 | (d2 c2 B2 A2) | %67
 .G/.B/.d/.g/ .b/.g/.b/.g/ ^f/a/f/a/ A/c/A/c/ | .G/.B/.d/.g/ .b/.g/.b/.g/ ^f/a/f/a/ A/c/A/c/ | %69
 .B/.e/.c/.A/ .B/.e/.c/.A/ .B/.e/.c/.A/ .B/.e/.c/.A/ | B/d/=e/^f/ g/a/b/c'/ d'/c'/b/a/ g/=f/_e/d/ | %71
 de e3 e'c'a | gb=bc' ^c'd'bg | d4 Ta4 | g z [DB][DB] [Dc] z ^FF | G z [DB][DB] [Dc] z ^FF | %76
 G^FGF GFGF | GGGG B,GB,G | CGCG CGCG | FCA,C FCA,C | B,DFD C=EGB | [FB]4 [FA]2 z2 | z4 z2 F>A | %83
 c2 A2 F2 A>c | (e6 d2) | (^c6 =c2) | c2 F>A c2 F>A | !fermata!c2 z2 z4 | z4 z2 E2 | B2 F2 D2 F2 | %90
 (Bdce) d2 ec | [GB]4 [FA]2 B>c | f2 d2 B2 c>e | decd B2 c>e | db{g} gf/e/ d2 Pc2 | %95
 B2 [Fc]2 B,2 z2 | [B,D]2 z2 B/A/G/F/ E/D/C/B,/ | A,2 z2 F/G/A/B/ c/d/e/c/ | %98
 d2 z2 B/A/G/F/ E/D/C/B,/ | A,2 z2 F/G/A/B/ c/d/e/c/ | BFDF DFDF | EBEB DBDB | %102
 [EB][EB][EB][EB] [EB][EB][EB][EB] | E2 D2 C2 B,2 | EEEE EE=EE | F2 [Fc]2 [Fc]2 F>F | B3 d (cABc) | %107
 g>f f4 (ed) | B2 (B2 G2 e2) | d4 c2 z2 | z8 | z2 A,C B,DCE | B,2 E2 F2 F2 | %113
 B,/D/F/B/ d/B/d/B/ A/F/A/c/ e/c/e/c/ | B,/D/F/B/ d/B/d/B/ A/F/A/c/ e/c/e/c/ | %115
 .d/.e/.c/.A/ .d/.e/.c/.A/ .d/.e/.c/.A/ .d/.e/.c/.A/ | d/e/c/d/ B/c/A/B/ G/A/F/G/ E/F/D/E/ | %117
 C2 g2 g(f/e/) d(c/B/) | A/(f/=e/f/) A/(f/d/f/) c/(f/e/f/) c/(f/d/f/) | %119
 .e/.f/.d/.f/ c/f/d/f/ e/f/d/f/ c/f/d/f/ | .e/.f/.d/.f/ e/f/d/f/ e/f/d/f/ c/f/B/f/ | %121
 (A/c/).d/.=e/ (f/g/)a/b/ c'/b/a/b/ a/g/f/_e/ | (.d .f2 .b2 .d'2 .f') | F4 Tc4 | %124
 B z [B,D][B,D] [CE] z [A,F][A,F] | [CF] z [B,D][B,D] [CE] z [A,F][A,F] | [B,F]FBF BFBF | %127
 BAGF EDCB, | EEEE EE=EE | F z FG A z AB | cBAB cBAB | c=BcB c_BAG | %132
 [A,F][A,F][A,F][A,F] [A,F][A,F][A,F][A,F] | [B,F]2 z2 z4 | [FB][FB][FB][FB] [FA][FA][FA][FA] | %135
 [DB] z d'c' bag^f | g z ed cBAc | B z ba gfed | e z GF EDCE | %139
"_BRON: Alamire uitgave \"Speelmansboek uit Maastricht\"\n vermeldt bij concordatie:\n              Fragment uit een vioolduet (1789) van Pleyel Ignaz (1757-1831) (cfr. Benton, 513/i)" D/F/D/B,/ D/F/D/B,/ A,/C/F/A/ c/A/F/E/ | %140
 D/F/D/B,/ D/F/D/B,/ A,/C/F/A/ c/A/F/E/ | D/B/c/d/ e/f/g/a/ .b.f.d.B | %142
 [B,DB]2 [B,DB]2 [B,DB]2 z2 |] %143

